app/dist/common/images/kornit-digital.svg

<svg height="18" viewBox="0 0 18 18" width="18" xmlns="http://www.w3.org/2000/svg" xmlns:xlink="http://www.w3.org/1999/xlink"><linearGradient id="a" gradientUnits="userSpaceOnUse" x1="3.35" x2="21.9" y1="3.12" y2="24.43"><stop offset="0" stop-color="#1a1e21"/><stop offset="1" stop-color="#06060a"/></linearGradient><path d="m0 0h18v18h-18z" fill="url(#a)"/><path d="m5.6 5.1-1.6 5 3.55 3.9 4.93-1.18 1.52-4.92-3.55-3.9-2.45.56v7.44h-1v-7.22zm3.15 4.38 1.5-2.48h1.14l-1.47 2.48 1.5 2.52h-1.17z" fill="#fff"/></svg>

<!-- by TradingView --><svg xmlns="http://www.w3.org/2000/svg" width="18" height="18" viewBox="0 0 18 18"><path fill="url(#ajhxlxhng)" d="M0 0h18v18H0z"/><path d="m5.6 5.1-1.6 5L7.55 14l4.93-1.18L14 7.9 10.45 4 8 4.56V12H7V4.78l-1.4.32Zm3.15 4.38L10.25 7h1.14L9.92 9.48l1.5 2.52h-1.17l-1.5-2.52Z" fill="#fff"/><defs><linearGradient id="ajhxlxhng" x1="3.35" y1="3.12" x2="21.9" y2="24.43" gradientUnits="userSpaceOnUse"><stop stop-color="#1A1E21"/><stop offset="1" stop-color="#06060A"/></linearGradient></defs></svg>
